resources/devices/mic_on_stand_2.svg

<?xml version="1.0" encoding="UTF-8" standalone="no"?>
<svg
   width="25"
   height="100"
   version="1.1"
   id="svg4"
   sodipodi:docname="mic_on_stand_2.svg"
   inkscape:version="1.3.2 (091e20e, 2023-11-25)"
   xmlns:inkscape="http://www.inkscape.org/namespaces/inkscape"
   xmlns:sodipodi="http://sodipodi.sourceforge.net/DTD/sodipodi-0.dtd"
   xmlns="http://www.w3.org/2000/svg"
   xmlns:svg="http://www.w3.org/2000/svg">
  <defs
     id="defs4" />
  <sodipodi:namedview
     id="namedview4"
     pagecolor="#ffffff"
     bordercolor="#000000"
     borderopacity="0.25"
     inkscape:showpageshadow="2"
     inkscape:pageopacity="0.0"
     inkscape:pagecheckerboard="0"
     inkscape:deskcolor="#d1d1d1"
     inkscape:current-layer="svg4" />
  <g
     id="g5"
     transform="translate(2.1639858,0.98290351)">
    <path
       id="path2"
       style="stroke-width:0.319773;stroke-linecap:square;stroke-linejoin:round;stroke-miterlimit:4.7"
       d="m 8.2246898,8.1164681 8.656e-4,87.4599549 c 0.375415,0.823648 0.9172092,0.618949 1.4949999,5.3e-4 L 9.7215753,7.5152209 M 0.49215737,95.050254 c -0.19848057,1.89e-4 -0.3593631,0.160987 -0.35965687,0.359467 l 2.0097e-4,2.267969 c 0.001915,0.197158 0.16206912,0.356094 0.35923618,0.356503 l 16.96089235,-4e-6 c 0.197535,-4.54e-4 0.357809,-0.159997 0.359165,-0.357528 l 5.21e-4,-2.266754 c -1.89e-4,-0.19848 -0.160986,-0.359362 -0.359466,-0.359656 z"
       sodipodi:nodetypes="ccccccccccccc" />
    <g
       style="display:inline"
       id="g4"
       transform="translate(-29.73007,-4.0038594)"
       inkscape:label="mic">
      <path
         d="m -8.208,5.402 -2.018,-2.839 -0.766,0.505 c -0.29,0.205 -0.456,1.08 -0.28,1.38 l 0.688,0.98 c 0.216,0.304 1.088,0.965 1.394,0.75 z M -8.488,1.418 -9.875,2.333 -7.878,5.14 -6.576,4.11 A 2.713,2.722 75.736 0 0 -6.571,4.08 L -8.46,1.43 A 2.713,2.722 75.736 0 0 -8.488,1.419 m 1.912,2.692 -1.302,1.03 0.555,0.778 a 2.713,2.722 75.736 0 0 0.14,-0.142 2.713,2.722 75.736 0 0 0.607,-1.666 M -7.644,6.194 -8.208,5.403 -9.19,6.178 c -0.306,0.216 -1.178,-0.445 -1.394,-0.75 l -0.688,-0.98 c -0.176,-0.299 -0.01,-1.174 0.28,-1.379 l 0.766,-0.505 -0.557,-0.783 a 2.713,2.722 75.736 0 0 -0.536,0.477 2.713,2.722 75.736 0 0 0.3,3.825 2.713,2.722 75.736 0 0 3.375,0.111 m -2.772,-4.623 0.54,0.763 1.389,-0.915 a 2.713,2.722 75.736 0 0 -1.929,0.152"
         style="stroke-width:0.140747;stroke-linecap:square;stroke-linejoin:round;stroke-miterlimit:4.7"
         transform="rotate(-165.736,19.317,1.81)"
         id="path3" />
      <path
         d="M -6.104,3.738 3.454,-3.817 C 3.679,-4.004 3.97,-4.229 3.684,-4.631 L 3.024,-5.563 C 2.809,-5.868 2.419,-5.781 2.113,-5.565 l -3.343,2.201 0.102,0.4 a 0.36,0.36 0 0 1 -0.258,0.436 l -0.757,0.193 A 0.35,0.35 0 0 1 -2.535,-2.504 L -7.989,1.09 Z m 3.57,-6.242 a 0.35,0.35 0 0 0 0.392,0.169 l 0.757,-0.193 a 0.36,0.36 0 0 0 0.258,-0.436 l -0.102,-0.4 z"
         style="fill:#808080;stroke-width:0.140747;stroke-linecap:square;stroke-linejoin:round;stroke-miterlimit:4.7"
         transform="rotate(-165.736,19.317,1.81)"
         id="path4" />
    </g>
  </g>
</svg>

<svg xmlns="http://www.w3.org/2000/svg" width="25" height="100">
    <path d="M8.225 8.116v87.46c.376.824.918.62 1.496.001V7.515M.493 95.05a.36.36 0 0 0-.36.36v2.268a.36.36 0 0 0 .36.356h16.96a.36.36 0 0 0 .36-.357V95.41a.36.36 0 0 0-.359-.36z" style="stroke-width:.319773;stroke-linecap:square;stroke-linejoin:round;stroke-miterlimit:4.7" transform="translate(2.164 .983)"/>
    <g style="display:inline">
        <path d="m-8.208 5.402-2.018-2.839-.766.505c-.29.205-.456 1.08-.28 1.38l.688.98c.216.304 1.088.965 1.394.75zm-.28-3.984-1.387.915 1.997 2.807 1.302-1.03a2.713 2.722 75.736 0 0 .005-.03L-8.46 1.43a2.713 2.722 75.736 0 0-.028-.011m1.912 2.692-1.302 1.03.555.778a2.713 2.722 75.736 0 0 .14-.142 2.713 2.722 75.736 0 0 .607-1.666m-1.068 2.083-.564-.791-.982.775c-.306.216-1.178-.445-1.394-.75l-.688-.98c-.176-.299-.01-1.174.28-1.379l.766-.505-.557-.783a2.713 2.722 75.736 0 0-.536.477 2.713 2.722 75.736 0 0 .3 3.825 2.713 2.722 75.736 0 0 3.375.111m-2.772-4.623.54.763 1.389-.915a2.713 2.722 75.736 0 0-1.929.152" style="stroke-width:.140747;stroke-linecap:square;stroke-linejoin:round;stroke-miterlimit:4.7" transform="rotate(-165.736 5.345 2.024)"/>
        <path d="m-6.104 3.738 9.558-7.555c.225-.187.516-.412.23-.814l-.66-.932c-.215-.305-.605-.218-.911-.002L-1.23-3.364l.102.4a.36.36 0 0 1-.258.436l-.757.193a.35.35 0 0 1-.392-.169L-7.989 1.09Zm3.57-6.242a.35.35 0 0 0 .392.169l.757-.193a.36.36 0 0 0 .258-.436l-.102-.4z" style="fill:gray;stroke-width:.140747;stroke-linecap:square;stroke-linejoin:round;stroke-miterlimit:4.7" transform="rotate(-165.736 5.345 2.024)"/>
    </g>
</svg>
